src/icons/husky.svg

<svg viewBox="0 0 24 24" xmlns="http://www.w3.org/2000/svg">
  <path
    d="M13.083 2.937C14.086 3.337 14.483 4.917 13.958 6.476C13.439 8.028 12.213 8.973 11.206 8.58C10.206 8.191 9.80201 6.608 10.318 5.044C10.83 3.487 12.071 2.551 13.083 2.937ZM18.693 6.176C19.541 6.864 19.343 8.403 18.267 9.633C17.162 10.858 15.597 11.303 14.753 10.628C13.9 9.948 14.106 8.413 15.198 7.192C16.288 5.958 17.852 5.512 18.693 6.176ZM6.80101 4.122C7.91801 4.254 8.73101 5.655 8.66401 7.238C8.54401 8.822 7.58901 10.007 6.48001 9.879C5.37201 9.752 4.56201 8.364 4.65301 6.774C4.74501 5.184 5.72101 4.001 6.80101 4.122ZM20.925 12.277C21.571 13.152 21.035 14.589 19.703 15.463C18.371 16.337 16.765 16.33 16.1 15.433C15.436 14.537 15.984 13.117 17.296 12.221C18.634 11.372 20.253 11.376 20.926 12.277M14.731 19.979C14.337 20.735 13.301 21.224 12.449 21.141C10.673 20.973 9.77901 18.679 8.21901 17.777C6.65701 16.876 4.17601 17.295 3.19901 15.8C2.63501 14.962 2.68301 13.63 3.27401 12.841C4.09001 11.753 5.85701 11.937 7.18301 11.561C8.92801 11.094 10.913 9.468 12.491 10.378C14.06 11.284 13.709 13.812 14.111 15.562C14.43 17.022 15.415 18.668 14.731 19.979Z"
    fill="#90A4AE"
  />
</svg>

<svg viewBox="0 0 24 24" xmlns="http://www.w3.org/2000/svg">
  <path
    d="M13.083 2.937c1.003.4 1.4 1.98.875 3.539-.519 1.552-1.745 2.497-2.752 2.104-1-.389-1.404-1.972-.888-3.536.512-1.557 1.753-2.493 2.765-2.107m5.61 3.239c.848.688.65 2.227-.426 3.457-1.105 1.225-2.67 1.67-3.514.995-.853-.68-.647-2.215.445-3.436 1.09-1.234 2.654-1.68 3.495-1.016M6.801 4.122c1.117.132 1.93 1.533 1.863 3.116-.12 1.584-1.075 2.769-2.184 2.641-1.108-.127-1.918-1.515-1.827-3.105.092-1.59 1.068-2.773 2.148-2.652m14.124 8.155c.646.875.11 2.312-1.222 3.186s-2.938.867-3.603-.03c-.664-.896-.116-2.316 1.196-3.212 1.338-.849 2.957-.845 3.63.056m-6.195 7.702c-.394.756-1.43 1.245-2.282 1.162-1.776-.168-2.67-2.462-4.23-3.364-1.562-.901-4.043-.482-5.02-1.977-.564-.838-.516-2.17.075-2.959.816-1.088 2.583-.904 3.909-1.28 1.745-.467 3.73-2.093 5.308-1.183 1.569.906 1.218 3.434 1.62 5.184.319 1.46 1.304 3.106.62 4.417z"
    style="fill: #90a4ae; stroke-width: 0.90605"
  />
</svg>
